src/WeatherTwentyOne/Resources/Images/rain_icon.svg

<svg width="42" height="36" viewBox="0 0 42 36" fill="none" xmlns="http://www.w3.org/2000/svg">
<path d="M38.5714 0C37.7848 0.000794215 37.0305 0.31712 36.4743 0.879557C35.918 1.44199 35.6052 2.20459 35.6044 3V6H32.6374C31.6272 5.94025 30.6574 5.57802 29.8514 4.9594C29.0454 4.34078 28.4397 3.49373 28.1112 2.526C28.0114 2.22805 27.8221 1.96903 27.5697 1.7851C27.3173 1.60117 27.0144 1.5015 26.7033 1.5C26.3927 1.49774 26.0894 1.59512 25.837 1.77812C25.5845 1.96112 25.396 2.22033 25.2984 2.5185C24.9706 3.48786 24.3648 4.33661 23.5582 4.95663C22.7516 5.57664 21.7807 5.93986 20.7692 6C19.7591 5.94025 18.7893 5.57802 17.9833 4.9594C17.1773 4.34078 16.5715 3.49373 16.243 2.526C16.1432 2.22805 15.9539 1.96903 15.7015 1.7851C15.4492 1.60117 15.1463 1.5015 14.8352 1.5C14.5235 1.49322 14.2181 1.58884 13.9648 1.77248C13.7115 1.95613 13.5239 2.2179 13.4303 2.5185C13.1024 3.48786 12.4966 4.33661 11.69 4.95663C10.8834 5.57664 9.91257 5.93986 8.9011 6H5.93407V3C5.93328 2.20459 5.62043 1.44199 5.06417 0.879557C4.50792 0.31712 3.7537 0.000794215 2.96703 0H0V3H2.96703V33C2.96782 33.7954 3.28067 34.558 3.83692 35.1204C4.39318 35.6829 5.1474 35.9992 5.93407 36H35.6044C36.3911 35.9992 37.1453 35.6829 37.7015 35.1204C38.2578 34.558 38.5706 33.7954 38.5714 33V3H41.5385V0H38.5714ZM5.93407 33V27H11.8681V24H5.93407V18H11.8681V15H5.93407V9H8.9011C10.0524 9.0103 11.1898 8.74575 12.2209 8.22785C13.252 7.70996 14.1477 6.95333 14.8352 6.0195C15.5297 6.94561 16.4269 7.69658 17.4564 8.2136C18.4859 8.73063 19.6197 8.99968 20.7692 8.99968C21.9187 8.99968 23.0526 8.73063 24.0821 8.2136C25.1116 7.69658 26.0087 6.94561 26.7033 6.0195C27.3907 6.95333 28.2864 7.70996 29.3175 8.22785C30.3486 8.74575 31.4861 9.0103 32.6374 9H35.6044V33H5.93407Z" fill="url(#paint0_linear)"/>
<defs>
<linearGradient id="paint0_linear" x1="7.09327" y1="6.50858" x2="27.8617" y2="28.9725" gradientUnits="userSpaceOnUse">
<stop offset="0.10243" stop-color="#28C2D1"/>
<stop offset="0.925347" stop-color="#4931DE"/>
</linearGradient>
</defs>
</svg>

<svg width="42" height="36" fill="none" xmlns="http://www.w3.org/2000/svg">
    <path
        d="M38.571 0c-.786 0-1.54.317-2.097.88a3.02 3.02 0 00-.87 2.12v3h-2.967a5.067 5.067 0 01-2.786-1.04 5.155 5.155 0 01-1.74-2.434 1.51 1.51 0 00-.541-.74 1.483 1.483 0 00-.867-.286 1.457 1.457 0 00-.866.278 1.484 1.484 0 00-.539.74 5.158 5.158 0 01-1.74 2.439A5.07 5.07 0 0120.77 6a5.067 5.067 0 01-2.786-1.04 5.155 5.155 0 01-1.74-2.434 1.51 1.51 0 00-.541-.74 1.482 1.482 0 00-.867-.286 1.43 1.43 0 00-.87.272c-.254.184-.441.446-.535.746a5.159 5.159 0 01-1.74 2.439A5.07 5.07 0 018.901 6H5.934V3a3.02 3.02 0 00-.87-2.12A2.954 2.954 0 002.967 0H0v3h2.967v30c0 .795.314 1.558.87 2.12.556.563 1.31.88 2.097.88h29.67c.787 0 1.541-.317 2.098-.88a3.02 3.02 0 00.87-2.12V3h2.966V0h-2.967zM5.934 33v-6h5.934v-3H5.934v-6h5.934v-3H5.934V9h2.967a7.25 7.25 0 003.32-.772 7.337 7.337 0 002.614-2.208 7.466 7.466 0 002.621 2.194 7.38 7.38 0 006.626 0 7.467 7.467 0 002.621-2.195 7.336 7.336 0 002.614 2.209 7.25 7.25 0 003.32.772h2.967v24H5.934z"
        fill="url(#prefix__paint0_linear)" />
    <defs>
        <linearGradient id="prefix__paint0_linear" x1="7.093" y1="6.509" x2="27.862" y2="28.973"
            gradientUnits="userSpaceOnUse">
            <stop offset=".102" stop-color="#28C2D1" />
            <stop offset=".925" stop-color="#4931DE" />
        </linearGradient>
    </defs>
</svg>
